assets/svgs/misc-grey/MiscGrey40.svg

<svg width="41" height="34" viewBox="0 0 41 34" fill="none" xmlns="http://www.w3.org/2000/svg">
<path fill-rule="evenodd" clip-rule="evenodd" d="M3.35304 3.55005V29.25C3.36904 29.7901 3.61104 30.73 5.05904 30.77C8.50004 30.86 36.197 30.81 36.476 30.81C37.274 30.78 37.688 30.24 37.688 29.19L37.687 10.59C37.688 10.55 37.686 9.99005 37.338 9.64005C37.073 9.38005 36.615 9.24005 35.979 9.24005C32.645 9.24005 18.681 9.19005 18.681 9.19005C18.296 9.19005 17.926 9.04005 17.648 8.77005L12.208 3.55005H3.35304ZM20.905 33.83C13.831 33.83 6.66604 33.8101 4.98004 33.7701C1.57604 33.68 0.348043 31.0201 0.353043 29.25V2.05005C0.353043 1.23005 1.02404 0.550049 1.85304 0.550049H12.812C13.199 0.550049 13.571 0.700049 13.85 0.970049L19.292 6.19005C21.999 6.20005 33.061 6.24005 35.979 6.24005C37.844 6.24005 38.933 6.97005 39.518 7.58005C40.728 8.85005 40.693 10.48 40.686 10.66L40.688 29.19C40.688 30.96 39.998 32.01 39.42 32.59C38.23 33.7701 36.686 33.81 36.479 33.81C36.476 33.81 36.474 33.81 36.471 33.81C35.887 33.81 28.447 33.83 20.905 33.83Z" fill="#1A1919"/>
</svg>

<svg xmlns="http://www.w3.org/2000/svg" fill="none" viewBox="0 0 41 34"><path fill="#1A1919" fill-rule="evenodd" d="M3.353 3.55v25.7c.016.54.258 1.48 1.706 1.52 3.441.09 31.138.04 31.417.04.798-.03 1.212-.57 1.212-1.62l-.001-18.6c.001-.04-.001-.6-.349-.95-.265-.26-.723-.4-1.359-.4-3.334 0-17.298-.05-17.298-.05-.385 0-.755-.15-1.033-.42l-5.44-5.22H3.353zm17.552 30.28c-7.074 0-14.239-.02-15.925-.06-3.404-.09-4.632-2.75-4.627-4.52V2.05c0-.82.671-1.5 1.5-1.5h10.959c.387 0 .759.15 1.038.42l5.442 5.22c2.707.01 13.769.05 16.687.05 1.865 0 2.954.73 3.539 1.34 1.21 1.27 1.175 2.9 1.168 3.08l.002 18.53c0 1.77-.69 2.82-1.268 3.4-1.19 1.18-2.734 1.22-2.941 1.22h-.008c-.584 0-8.024.02-15.566.02z" clip-rule="evenodd"/></svg>
